!!!OTL: Der junge Held.
!!!OTL-incipit: Des Nachts beim hellen Mondenschein
!!!ARE: Europa, Mitteleuropa, Deutschland / France, Lothringen
!!!YOR: 3, S. 152
!!    1933 gedruckt in Heidelberg (nach)
!!!SCT: Q0060G
!!!TXL: @@DE
!!!YEM: Copyright 1995, estate of Helmut Schaffrath.
**kern	**text
*ICvox	*
*M4/4	*
*met(c)	*
*k[b-]	*
*d:	*
!LO:TX:a:t=Lothringen	!
{4d	Des
=1	=1
4a	Nachts
4a	beim
4f	hel-
4b-	-len
=2	=2
4a	Mondenſchein
4g	.
4f}	.
{8f	da
8f	ge-
=3	=3
4b-	-ſeh
4a	ich
4g	ſchwarʒbraunes
8f	.
8f	.
=4	=4
8fL	Mädelein
8eJ	.
4d	.
4c}	.
{4c	wohl
=5	=5
4f	auf
4f	der
8gL	Haustür
8fJ	.
4g	.
=6	=6
2a	ſtehn,
4r}	.
{4b-	wohl
=7	=7
4a	auf
4d	der
4f	Haustür
4e	.
=8	=8
2d	ſtehn.
4r}	.
==	==
!!!AGN: Ballade, Verfuehrung, Standesunterschied
!!!ONB: ESAC (Essen Associative Code) Database: BALLADE
!!!AMT: simple quadruple
!!!AIN: vox
!!!EED: Helmut Schaffrath
!!!EEV: 1.0
!!!source: Deutsche Volkslieder mit ihren Melodien. Herausgegeben vom Deutschen Volksliedarchiv. Dritter Band Balladen. Berlin 1954.
!!!page: 152
!!!ENC: Anna Maria Matuszewska
!!!EEV: 2025/02/20
*-	*-
